src/assets/doublefleche.svg

<svg width="64" height="61" viewBox="0 0 64 61" fill="none" xmlns="http://www.w3.org/2000/svg">
<path d="M13.4456 33.0381C13.445 32.5436 13.5998 32.06 13.8907 31.6484C14.1815 31.2368 14.5952 30.9156 15.0794 30.7255C15.5637 30.5354 16.0968 30.4849 16.6112 30.5805C17.1257 30.676 17.5985 30.9132 17.9698 31.2621L30.18 42.6924C30.4279 42.9253 30.7222 43.1096 31.0461 43.2347C31.3699 43.3597 31.7169 43.4231 32.0669 43.4211C32.417 43.4191 32.7632 43.3518 33.0856 43.223C33.4079 43.0942 33.7002 42.9066 33.9453 42.6708L46.0238 31.1014C46.2689 30.8657 46.5611 30.678 46.8835 30.5493C47.2059 30.4205 47.5521 30.3532 47.9022 30.3512C48.2522 30.3492 48.5992 30.4125 48.923 30.5376C49.2469 30.6627 49.5412 30.847 49.7891 31.0799C50.2856 31.5454 50.5664 32.1775 50.5702 32.8379C50.574 33.4984 50.3004 34.1336 49.8093 34.6048L37.7041 46.1494C36.2206 47.5624 34.2033 48.3629 32.0953 48.3749C29.9873 48.387 27.9609 47.6097 26.4613 46.2138L14.2247 34.8086C13.9776 34.5765 13.7816 34.3005 13.6479 33.9967C13.5142 33.6929 13.4455 33.3671 13.4456 33.0381Z" fill="#CD5954"/>
<path d="M13.3453 15.5386C13.3447 15.0441 13.4996 14.5605 13.7904 14.1489C14.0812 13.7372 14.4949 13.4161 14.9792 13.226C15.4634 13.0359 15.9965 12.9854 16.511 13.0809C17.0255 13.1765 17.4983 13.4137 17.8696 13.7626L31.9723 26.907L45.9235 13.6019C46.1687 13.3662 46.4609 13.1785 46.7833 13.0498C47.1057 12.921 47.4519 12.8537 47.8019 12.8516C48.152 12.8496 48.4989 12.913 48.8228 13.0381C49.1466 13.1631 49.441 13.3474 49.6888 13.5803C50.1854 14.0459 50.4662 14.678 50.47 15.3384C50.4738 15.9989 50.2002 16.6341 49.709 17.1053L33.8853 32.1962C33.6401 32.4319 33.3479 32.6196 33.0255 32.7483C32.7031 32.8771 32.3569 32.9444 32.0069 32.9464C31.6569 32.9485 31.3099 32.8851 30.986 32.76C30.6622 32.635 30.3679 32.4507 30.12 32.2177L14.1245 17.3091C13.8774 17.0769 13.6814 16.801 13.5477 16.4972C13.414 16.1933 13.3452 15.8676 13.3453 15.5386Z" fill="#CD5954"/>
</svg>

<svg xmlns="http://www.w3.org/2000/svg" width="64" height="61" fill="none"><path fill="#CD5954" d="M13.446 33.038a2.4 2.4 0 0 1 .445-1.39c.29-.411.704-.732 1.188-.922a2.8 2.8 0 0 1 1.532-.145c.515.095.988.332 1.359.681l12.21 11.43c.248.233.542.418.866.543a2.8 2.8 0 0 0 2.04-.012c.322-.129.614-.316.86-.552L46.023 31.1c.245-.235.537-.423.86-.552a2.8 2.8 0 0 1 2.039-.011c.324.125.618.309.866.542a2.43 2.43 0 0 1 .781 1.758 2.43 2.43 0 0 1-.76 1.767L37.703 46.149c-1.483 1.413-3.5 2.214-5.609 2.226s-4.134-.765-5.634-2.161L14.225 34.809a2.5 2.5 0 0 1-.577-.812 2.4 2.4 0 0 1-.202-.959"/><path fill="#CD5954" d="M13.345 15.539a2.4 2.4 0 0 1 .445-1.39c.291-.412.705-.733 1.19-.923a2.8 2.8 0 0 1 1.531-.145c.515.096.987.333 1.359.682l14.102 13.144 13.951-13.305c.246-.236.538-.424.86-.552a2.8 2.8 0 0 1 2.04-.012c.324.125.618.31.866.542a2.43 2.43 0 0 1 .781 1.758c.004.66-.27 1.296-.761 1.767L33.885 32.196a2.7 2.7 0 0 1-.86.552 2.8 2.8 0 0 1-2.039.012 2.7 2.7 0 0 1-.866-.542L14.124 17.309a2.5 2.5 0 0 1-.576-.812 2.4 2.4 0 0 1-.203-.958"/></svg>
